vector/logo_notext.svg

<svg xmlns="http://www.w3.org/2000/svg" viewBox="0 0 24 12" enable-background="new 0 0 24 12"><style type="text/css">.st0{fill:none;stroke:#101010;stroke-width:0.5;stroke-linecap:round;stroke-linejoin:round;stroke-miterlimit:10;} .st1{fill:#FFFFFF;stroke:#101010;stroke-width:0.52;stroke-linejoin:round;stroke-miterlimit:10;} .st2{fill:#5A539E;stroke:#101010;stroke-width:0.5;stroke-linejoin:round;stroke-miterlimit:10;}</style><path class="st0" d="M4 .8v2.3M20 .8v2.3"/><path class="st1" d="M7.5 1.1l-3.5.7 3.5.7v-1.4zM.5 1.8v.7l3.5-.7-3.5-.7v.7zM23.5 1.1l-3.5.7 3.5.7v-1.4zM16.5 1.8v.7l3.5-.7-3.5-.7v.7zM20 5.3c-.3 0-.5-.2-.5-.5v-1c0-.3.2-.5.5-.5s.5.2.5.5v1c0 .2-.2.5-.5.5zM4 5.3c-.3 0-.5-.3-.5-.5v-1c0-.3.2-.5.5-.5s.5.2.5.5v1c0 .2-.2.5-.5.5z"/><path class="st2" d="M18.7 5.4c-2.3.6-4.6.9-6.7.9-2.3 0-4.5-.3-6.7-.8-.2.4-.7.8-1.3.8-.2 0-.3 0-.5-.1 0 1.2.9 2.1 2.1 2.1h12.8c1.2 0 2.1-.9 2.1-2.1-.2.1-.3.1-.5.1-.6 0-1.1-.4-1.3-.9z"/><path class="st1" d="M12 10.3c1.1 0 2-.9 2-2h-4c0 1.1.9 2 2 2z"/><path class="st0" d="M8.5 8.3l-3 3M18.5 11.3l-3-3M4.5 11.3h2.5M17.5 11.3h2.5"/></svg>

<?xml version="1.0" encoding="utf-8"?>
<!-- Generator: Adobe Illustrator 24.0.2, SVG Export Plug-In . SVG Version: 6.00 Build 0)  -->
<svg version="1.1" id="Слой_1" xmlns="http://www.w3.org/2000/svg" xmlns:xlink="http://www.w3.org/1999/xlink" x="0px" y="0px"
	 viewBox="0 0 24 12" style="enable-background:new 0 0 24 12;" xml:space="preserve">
<style type="text/css">
	.st0{fill:none;stroke:#101010;stroke-width:0.5;stroke-linecap:round;stroke-linejoin:round;stroke-miterlimit:10;}
	.st1{fill:#FFFFFF;stroke:#101010;stroke-width:0.52;stroke-linejoin:round;stroke-miterlimit:10;}
	.st2{fill:#5A539E;stroke:#101010;stroke-width:0.5;stroke-linejoin:round;stroke-miterlimit:10;}
</style>
<line class="st0" x1="4" y1="0.8" x2="4" y2="3.1"/>
<line class="st0" x1="20" y1="0.8" x2="20" y2="3.1"/>
<g>
	<path class="st1" d="M7.5,1.1L4,1.8l3.5,0.7c0-0.2,0-0.4,0-0.7S7.5,1.3,7.5,1.1z"/>
	<path class="st1" d="M0.5,1.8c0,0.2,0,0.4,0,0.7L4,1.8L0.5,1.1C0.5,1.3,0.5,1.5,0.5,1.8z"/>
</g>
<g>
	<path class="st1" d="M23.5,1.1L20,1.8l3.5,0.7c0-0.2,0-0.4,0-0.7S23.5,1.3,23.5,1.1z"/>
	<path class="st1" d="M16.5,1.8c0,0.2,0,0.4,0,0.7L20,1.8l-3.5-0.7C16.5,1.3,16.5,1.5,16.5,1.8z"/>
</g>
<path class="st1" d="M20,5.3L20,5.3c-0.3,0-0.5-0.2-0.5-0.5v-1c0-0.3,0.2-0.5,0.5-0.5l0,0c0.3,0,0.5,0.2,0.5,0.5v1
	C20.5,5,20.3,5.3,20,5.3z"/>
<path class="st1" d="M4,5.3L4,5.3C3.7,5.3,3.5,5,3.5,4.8v-1c0-0.3,0.2-0.5,0.5-0.5h0c0.3,0,0.5,0.2,0.5,0.5v1C4.5,5,4.3,5.3,4,5.3z"
	/>
<g>
	<path class="st2" d="M18.7,5.4C16.4,6,14.1,6.3,12,6.3C9.7,6.3,7.5,6,5.3,5.5C5.1,5.9,4.6,6.3,4,6.3c-0.2,0-0.3,0-0.5-0.1v0
		c0,1.2,0.9,2.1,2.1,2.1h12.8c1.2,0,2.1-0.9,2.1-2.1v0c-0.2,0.1-0.3,0.1-0.5,0.1C19.4,6.3,18.9,5.9,18.7,5.4z"/>
</g>
<g>
	<path class="st1" d="M12,10.3c1.1,0,2-0.9,2-2h-4C10,9.4,10.9,10.3,12,10.3z"/>
</g>
<line class="st0" x1="8.5" y1="8.3" x2="5.5" y2="11.3"/>
<line class="st0" x1="18.5" y1="11.3" x2="15.5" y2="8.3"/>
<line class="st0" x1="4.5" y1="11.3" x2="7" y2="11.3"/>
<line class="st0" x1="17.5" y1="11.3" x2="20" y2="11.3"/>
</svg>
